pcfx/_inc/system.svg

<svg xmlns="http://www.w3.org/2000/svg"><g fill="#fff"><path d="m42.527 140.618c10.758-.004 21.47-.661 31.576-4.508 27.03-9.314 44.938-37.878 44.044-66.076-.784-13.822-5.467-27.499-13.822-38.577-12.442-17.588-34.112-27.563-55.488-27.03l-48.083-.021v40.63l-.128.558.128-.008v148.453h19.566v-53.421m-.192-118.688c11.018-.021 22.032-.256 33.029.252 16.374 1.086 32.284 10.23 40.298 24.733 10.039 17.163 8.893 40.388-3.485 56.063-8.636 11.632-22.693 19.076-37.218 19.31-10.805.149-21.389.068-32.432.068z"/><path d="m330.801 113.477v-36.852h-28.786c1.956 6.958 3.025 14.291 3.025 21.875 0 5.122-.498 10.12-1.41 14.977z"/><path d="m296.591 134.444c-13.221 26.527-40.6 44.755-72.254 44.755-44.571 0-80.703-36.131-80.703-80.703 0-44.568 36.132-80.703 80.703-80.703 28.829 0 54.108 15.126 68.381 37.861h20.294c-15.935-32.927-49.637-55.654-88.679-55.654-54.397 0-98.496 44.099-98.496 98.496 0 54.401 44.099 98.5 98.496 98.5 41.709 0 77.333-25.935 91.696-62.552z"/><path d="m441.087 42.003v-37.597h-58.846-16.591-19.438v189.697h36.029v-80.626h56.136v-36.852h-56.136v-34.622z"/><path d="m592.143 194.103-56.357-98.564 52.105-91.133h-43.362l-30.426 53.212-30.422-53.212h-43.361l52.104 91.133-56.357 98.564h43.362l34.674-60.643 34.678 60.643z"/><path d="m20.643 231.64v-19.599l-8.283 19.599h-1.904l-8.253-19.599v19.599h-2.203v-22.015h3.426l8.014 18.739 7.981-18.739h3.429v22.015z"/><path d="m34.657 232.028c-4.435 0-7.478-2.68-7.478-8.666v-13.737h2.207v13.737c0 4.495 1.85 6.642 5.301 6.642 3.396 0 5.275-2.143 5.275-6.642v-13.737h2.202v13.737c0 5.986-3.037 8.666-7.507 8.666z"/><path d="m46.502 231.64v-22.015h2.207v20.017h9.114v1.998z"/><path d="m63.924 211.623v20.017h-2.203v-20.017h-5.036v-1.994h12.275v1.994z"/><path d="m71.244 231.64v-22.015h2.207v22.015z"/><path d="m98.441 231.64v-19.599l-8.283 19.599h-1.905l-8.253-19.599v19.599h-2.203v-22.015h3.426l8.01 18.739 7.985-18.739h3.425v22.015z"/><path d="m104.981 231.64v-22.015h12.032v1.994h-9.829v7.895h9.501v1.994h-9.501v8.134h9.829v1.998z"/><path d="m126.689 231.64h-5.931v-22.015h5.186c3.992 0 6.314.477 8.402 1.73 3.276 1.934 5.002 5.211 5.002 9.352 0 6.349-4.052 10.933-12.659 10.933zm6.434-18.589c-1.67-1.01-3.754-1.428-7.09-1.428h-3.068v18.023h3.068c3.903 0 6.166-.566 7.925-1.964 2.024-1.64 3.157-4.171 3.157-7.06 0-3.281-1.461-6.05-3.992-7.571z"/><path d="m142.731 231.64v-22.015h2.207v22.015z"/><path d="m166.323 231.64-3.191-7.418h-10.247l-3.217 7.418h-2.322l9.441-22.015h2.476l9.472 22.015zm-8.283-19.51-4.32 10.098h8.551z"/><path d="m179.203 231.64v-22.015h12.037v1.994h-9.834v7.895h9.506v1.994h-9.506v8.134h9.834v1.998z"/><path d="m210.298 231.64-13.11-19.361v19.361h-2.207v-22.015h2.982l12.331 18.262v-18.262h2.207v22.015z"/><path d="m222.02 211.623v20.017h-2.203v-20.017h-5.036v-1.994h12.275v1.994z"/><path d="m229.34 231.64v-22.015h12.036v1.994h-9.829v7.895h9.501v1.994h-9.501v8.134h9.829v1.998z"/><path d="m253.553 223.417 6.166 8.223h-2.74l-7.418-9.978c6.165 0 8.249-1.07 8.249-5.032 0-3.665-2.262-5.007-7.388-5.007h-3.098v20.017h-2.203v-22.015h5.45c6.911 0 9.472 2.505 9.472 7.09.004 3.903-2.263 6.259-6.49 6.702z"/><path d="m268.202 211.623v20.017h-2.207v-20.017h-5.032v-1.994h12.271v1.994z"/><path d="m291.074 231.64-3.187-7.418h-10.252l-3.217 7.418h-2.322l9.442-22.015h2.476l9.471 22.015zm-8.283-19.51-4.321 10.098h8.547z"/><path d="m295.884 231.64v-22.015h2.207v22.015z"/><path d="m317.746 231.64-13.106-19.361v19.361h-2.207v-22.015h2.978l12.335 18.262v-18.262h2.207v22.015z"/><path d="m344.934 231.64v-19.599l-8.283 19.599h-1.905l-8.253-19.599v19.599h-2.202v-22.015h3.425l8.015 18.739 7.98-18.739h3.426v22.015z"/><path d="m351.474 231.64v-22.015h12.033v1.994h-9.83v7.895h9.502v1.994h-9.502v8.134h9.83v1.998z"/><path d="m382.565 231.64-13.11-19.361v19.361h-2.203v-22.015h2.978l12.335 18.262v-18.262h2.203v22.015z"/><path d="m394.291 211.623v20.017h-2.207v-20.017h-5.032v-1.994h12.271v1.994z"/><path d="m416.114 222.735h-4.231v8.905h-2.207v-22.015h6.08c6.046 0 8.488 2.054 8.488 6.672.004 4.172-2.143 6.438-8.13 6.438zm-1.103-11.112h-3.128v9.114h4.078c4.38 0 6.05-1.248 6.05-4.44 0-4.465-2.799-4.674-7-4.674z"/><path d="m427.124 231.64v-22.015h2.207v20.017h9.118v1.998z"/><path d="m458.786 231.64-3.192-7.418h-10.247l-3.217 7.418h-2.322l9.442-22.015h2.476l9.471 22.015zm-8.283-19.51-4.321 10.098h8.552z"/><path d="m468.99 224.282v7.358h-2.203v-7.358l-7.626-14.657h2.441l6.255 12.335 6.408-12.335h2.412z"/><path d="m478.811 231.64v-22.015h12.037v1.994h-9.834v7.895h9.506v1.994h-9.506v8.134h9.834v1.998z"/><path d="m503.021 223.417 6.165 8.223h-2.739l-7.418-9.978c6.165 0 8.253-1.07 8.253-5.032 0-3.665-2.263-5.007-7.389-5.007h-3.097v20.017h-2.207v-22.015h5.449c6.911 0 9.476 2.505 9.476 7.09.005 3.903-2.262 6.259-6.493 6.702z"/><path d="m526.988 222.735h-4.231v8.905h-2.203v-22.015h6.076c6.046 0 8.491 2.054 8.491 6.672 0 4.172-2.143 6.438-8.133 6.438zm-1.1-11.112h-3.131v9.114h4.082c4.38 0 6.05-1.248 6.05-4.44 0-4.465-2.804-4.674-7.001-4.674z"/><path d="m548.607 232.028c-6.583 0-11.56-4.887-11.56-11.321 0-6.583 4.858-11.47 11.411-11.47 4.559 0 8.432 2.327 10.127 6.11h-2.475c-1.875-2.952-4.465-4.082-7.567-4.082-5.241 0-9.263 4.052-9.263 9.353 0 5.155 4.201 9.382 9.293 9.382 3.221 0 5.334-1.219 7.656-4.141h2.442c-2.199 4.086-5.595 6.169-10.064 6.169z"/><path d="m572.301 211.623v7.955h8.641v1.994h-8.641v10.068h-2.203v-22.015h11.172v1.994h-8.969z"/><path d="m597.405 231.64-6.225-9.412-6.255 9.412h-2.59l7.478-11.261-7.061-10.754h2.591l5.842 8.82 5.807-8.82h2.561l-7.06 10.754 7.507 11.261z"/><path d="m563.656 222.616c-.895 0-1.607-.711-1.607-1.606 0-.891.712-1.607 1.607-1.607.865 0 1.606.716 1.606 1.607 0 .895-.741 1.606-1.606 1.606z"/></g></svg>

<?xml version="1.0" encoding="utf-8"?>
<svg version="1.1" xmlns="http://www.w3.org/2000/svg">
  <g>
    <path d="M 42.527 140.618 C 53.285 140.614 63.997 139.957 74.103 136.11 C 101.133 126.796 119.041 98.232 118.147 70.034 C 117.363 56.212 112.68 42.535 104.325 31.457 C 91.883 13.869 70.213 3.894 48.837 4.427 L 0.754 4.406 L 0.754 45.036 L 0.626 45.594 L 0.754 45.586 L 0.754 194.039 L 20.32 194.039 L 20.32 140.618 M 20.128 21.93 C 31.146 21.909 42.16 21.674 53.157 22.182 C 69.531 23.268 85.441 32.412 93.455 46.915 C 103.494 64.078 102.348 87.303 89.97 102.978 C 81.334 114.61 67.277 122.054 52.752 122.288 C 41.947 122.437 31.363 122.356 20.32 122.356 L 20.128 21.93 Z" style="fill: rgb(255, 255, 255);"/>
    <path d="M 46.647 140.579" style="fill: rgb(255, 255, 255);"/>
    <path d="M 330.801 113.477 L 330.801 76.625 L 302.015 76.625 C 303.971 83.583 305.04 90.916 305.04 98.5 C 305.04 103.622 304.542 108.62 303.63 113.477 L 330.801 113.477 Z" style="fill: rgb(255, 255, 255);"/>
    <path d="M 296.591 134.444 C 283.37 160.971 255.991 179.199 224.337 179.199 C 179.766 179.199 143.634 143.068 143.634 98.496 C 143.634 53.928 179.766 17.793 224.337 17.793 C 253.166 17.793 278.445 32.919 292.718 55.654 L 313.012 55.654 C 297.077 22.727 263.375 0 224.333 0 C 169.936 0 125.837 44.099 125.837 98.496 C 125.837 152.897 169.936 196.996 224.333 196.996 C 266.042 196.996 301.666 171.061 316.029 134.444 L 296.591 134.444 Z" style="fill: rgb(255, 255, 255);"/>
    <polygon points="441.087 42.003 441.087 4.406 382.241 4.406 365.65 4.406 346.212 4.406 346.212 194.103 382.241 194.103 382.241 113.477 438.377 113.477 438.377 76.625 382.241 76.625 382.241 42.003" style="fill: rgb(255, 255, 255);"/>
    <polygon points="592.143 194.103 535.786 95.539 587.891 4.406 544.529 4.406 514.103 57.618 483.681 4.406 440.32 4.406 492.424 95.539 436.067 194.103 479.429 194.103 514.103 133.46 548.781 194.103" style="fill: rgb(255, 255, 255);"/>
    <path d="M 20.643 231.64 L 20.643 212.041 L 12.36 231.64 L 10.456 231.64 L 2.203 212.041 L 2.203 231.64 L 0 231.64 L 0 209.625 L 3.426 209.625 L 11.44 228.364 L 19.421 209.625 L 22.85 209.625 L 22.85 231.64 L 20.643 231.64 Z" style="fill: rgb(255, 255, 255);"/>
    <path d="M 34.657 232.028 C 30.222 232.028 27.179 229.348 27.179 223.362 L 27.179 209.625 L 29.386 209.625 L 29.386 223.362 C 29.386 227.857 31.236 230.004 34.687 230.004 C 38.083 230.004 39.962 227.861 39.962 223.362 L 39.962 209.625 L 42.164 209.625 L 42.164 223.362 C 42.164 229.348 39.127 232.028 34.657 232.028 Z" style="fill: rgb(255, 255, 255);"/>
    <path d="M 46.502 231.64 L 46.502 209.625 L 48.709 209.625 L 48.709 229.642 L 57.823 229.642 L 57.823 231.64 L 46.502 231.64 Z" style="fill: rgb(255, 255, 255);"/>
    <path d="M 63.924 211.623 L 63.924 231.64 L 61.721 231.64 L 61.721 211.623 L 56.685 211.623 L 56.685 209.629 L 68.96 209.629 L 68.96 211.623 L 63.924 211.623 Z" style="fill: rgb(255, 255, 255);"/>
    <path d="M 71.244 231.64 L 71.244 209.625 L 73.451 209.625 L 73.451 231.64 L 71.244 231.64 Z" style="fill: rgb(255, 255, 255);"/>
    <path d="M 98.441 231.64 L 98.441 212.041 L 90.158 231.64 L 88.253 231.64 L 80 212.041 L 80 231.64 L 77.797 231.64 L 77.797 209.625 L 81.223 209.625 L 89.233 228.364 L 97.218 209.625 L 100.643 209.625 L 100.643 231.64 L 98.441 231.64 Z" style="fill: rgb(255, 255, 255);"/>
    <path d="M 104.981 231.64 L 104.981 209.625 L 117.013 209.625 L 117.013 211.619 L 107.184 211.619 L 107.184 219.514 L 116.685 219.514 L 116.685 221.508 L 107.184 221.508 L 107.184 229.642 L 117.013 229.642 L 117.013 231.64 L 104.981 231.64 Z" style="fill: rgb(255, 255, 255);"/>
    <path d="M 126.689 231.64 L 120.758 231.64 L 120.758 209.625 L 125.944 209.625 C 129.936 209.625 132.258 210.102 134.346 211.355 C 137.622 213.289 139.348 216.566 139.348 220.707 C 139.348 227.056 135.296 231.64 126.689 231.64 Z M 133.123 213.051 C 131.453 212.041 129.369 211.623 126.033 211.623 L 122.965 211.623 L 122.965 229.646 L 126.033 229.646 C 129.936 229.646 132.199 229.08 133.958 227.682 C 135.982 226.042 137.115 223.511 137.115 220.622 C 137.115 217.341 135.654 214.572 133.123 213.051 Z" style="fill: rgb(255, 255, 255);"/>
    <path d="M 142.731 231.64 L 142.731 209.625 L 144.938 209.625 L 144.938 231.64 L 142.731 231.64 Z" style="fill: rgb(255, 255, 255);"/>
    <path d="M 166.323 231.64 L 163.132 224.222 L 152.885 224.222 L 149.668 231.64 L 147.346 231.64 L 156.787 209.625 L 159.263 209.625 L 168.735 231.64 L 166.323 231.64 Z M 158.04 212.13 L 153.72 222.228 L 162.271 222.228 L 158.04 212.13 Z" style="fill: rgb(255, 255, 255);"/>
    <path d="M 179.203 231.64 L 179.203 209.625 L 191.24 209.625 L 191.24 211.619 L 181.406 211.619 L 181.406 219.514 L 190.912 219.514 L 190.912 221.508 L 181.406 221.508 L 181.406 229.642 L 191.24 229.642 L 191.24 231.64 L 179.203 231.64 Z" style="fill: rgb(255, 255, 255);"/>
    <path d="M 210.298 231.64 L 197.188 212.279 L 197.188 231.64 L 194.981 231.64 L 194.981 209.625 L 197.963 209.625 L 210.294 227.887 L 210.294 209.625 L 212.501 209.625 L 212.501 231.64 L 210.298 231.64 Z" style="fill: rgb(255, 255, 255);"/>
    <path d="M 222.02 211.623 L 222.02 231.64 L 219.817 231.64 L 219.817 211.623 L 214.781 211.623 L 214.781 209.629 L 227.056 209.629 L 227.056 211.623 L 222.02 211.623 Z" style="fill: rgb(255, 255, 255);"/>
    <path d="M 229.34 231.64 L 229.34 209.625 L 241.376 209.625 L 241.376 211.619 L 231.547 211.619 L 231.547 219.514 L 241.048 219.514 L 241.048 221.508 L 231.547 221.508 L 231.547 229.642 L 241.376 229.642 L 241.376 231.64 L 229.34 231.64 Z" style="fill: rgb(255, 255, 255);"/>
    <path d="M 253.553 223.417 L 259.719 231.64 L 256.979 231.64 L 249.561 221.662 C 255.726 221.662 257.81 220.592 257.81 216.63 C 257.81 212.965 255.548 211.623 250.422 211.623 L 247.324 211.623 L 247.324 231.64 L 245.121 231.64 L 245.121 209.625 L 250.571 209.625 C 257.482 209.625 260.043 212.13 260.043 216.715 C 260.047 220.618 257.78 222.974 253.553 223.417 Z" style="fill: rgb(255, 255, 255);"/>
    <path d="M 268.202 211.623 L 268.202 231.64 L 265.995 231.64 L 265.995 211.623 L 260.963 211.623 L 260.963 209.629 L 273.234 209.629 L 273.234 211.623 L 268.202 211.623 Z" style="fill: rgb(255, 255, 255);"/>
    <path d="M 291.074 231.64 L 287.887 224.222 L 277.635 224.222 L 274.418 231.64 L 272.096 231.64 L 281.538 209.625 L 284.014 209.625 L 293.485 231.64 L 291.074 231.64 Z M 282.791 212.13 L 278.47 222.228 L 287.017 222.228 L 282.791 212.13 Z" style="fill: rgb(255, 255, 255);"/>
    <path d="M 295.884 231.64 L 295.884 209.625 L 298.091 209.625 L 298.091 231.64 L 295.884 231.64 Z" style="fill: rgb(255, 255, 255);"/>
    <path d="M 317.746 231.64 L 304.64 212.279 L 304.64 231.64 L 302.433 231.64 L 302.433 209.625 L 305.411 209.625 L 317.746 227.887 L 317.746 209.625 L 319.953 209.625 L 319.953 231.64 L 317.746 231.64 Z" style="fill: rgb(255, 255, 255);"/>
    <path d="M 344.934 231.64 L 344.934 212.041 L 336.651 231.64 L 334.746 231.64 L 326.493 212.041 L 326.493 231.64 L 324.291 231.64 L 324.291 209.625 L 327.716 209.625 L 335.731 228.364 L 343.711 209.625 L 347.137 209.625 L 347.137 231.64 L 344.934 231.64 Z" style="fill: rgb(255, 255, 255);"/>
    <path d="M 351.474 231.64 L 351.474 209.625 L 363.507 209.625 L 363.507 211.619 L 353.677 211.619 L 353.677 219.514 L 363.179 219.514 L 363.179 221.508 L 353.677 221.508 L 353.677 229.642 L 363.507 229.642 L 363.507 231.64 L 351.474 231.64 Z" style="fill: rgb(255, 255, 255);"/>
    <path d="M 382.565 231.64 L 369.455 212.279 L 369.455 231.64 L 367.252 231.64 L 367.252 209.625 L 370.23 209.625 L 382.565 227.887 L 382.565 209.625 L 384.768 209.625 L 384.768 231.64 L 382.565 231.64 Z" style="fill: rgb(255, 255, 255);"/>
    <path d="M 394.291 211.623 L 394.291 231.64 L 392.084 231.64 L 392.084 211.623 L 387.052 211.623 L 387.052 209.629 L 399.323 209.629 L 399.323 211.623 L 394.291 211.623 Z" style="fill: rgb(255, 255, 255);"/>
    <path d="M 416.114 222.735 L 411.883 222.735 L 411.883 231.64 L 409.676 231.64 L 409.676 209.625 L 415.756 209.625 C 421.802 209.625 424.244 211.679 424.244 216.297 C 424.248 220.469 422.101 222.735 416.114 222.735 Z M 415.011 211.623 L 411.883 211.623 L 411.883 220.737 L 415.961 220.737 C 420.341 220.737 422.011 219.489 422.011 216.297 C 422.011 211.832 419.212 211.623 415.011 211.623 Z" style="fill: rgb(255, 255, 255);"/>
    <path d="M 427.124 231.64 L 427.124 209.625 L 429.331 209.625 L 429.331 229.642 L 438.449 229.642 L 438.449 231.64 L 427.124 231.64 Z" style="fill: rgb(255, 255, 255);"/>
    <path d="M 458.786 231.64 L 455.594 224.222 L 445.347 224.222 L 442.13 231.64 L 439.808 231.64 L 449.25 209.625 L 451.726 209.625 L 461.197 231.64 L 458.786 231.64 Z M 450.503 212.13 L 446.182 222.228 L 454.734 222.228 L 450.503 212.13 Z" style="fill: rgb(255, 255, 255);"/>
    <path d="M 468.99 224.282 L 468.99 231.64 L 466.787 231.64 L 466.787 224.282 L 459.161 209.625 L 461.602 209.625 L 467.857 221.96 L 474.265 209.625 L 476.677 209.625 L 468.99 224.282 Z" style="fill: rgb(255, 255, 255);"/>
    <path d="M 478.811 231.64 L 478.811 209.625 L 490.848 209.625 L 490.848 211.619 L 481.014 211.619 L 481.014 219.514 L 490.52 219.514 L 490.52 221.508 L 481.014 221.508 L 481.014 229.642 L 490.848 229.642 L 490.848 231.64 L 478.811 231.64 Z" style="fill: rgb(255, 255, 255);"/>
    <path d="M 503.021 223.417 L 509.186 231.64 L 506.447 231.64 L 499.029 221.662 C 505.194 221.662 507.282 220.592 507.282 216.63 C 507.282 212.965 505.019 211.623 499.893 211.623 L 496.796 211.623 L 496.796 231.64 L 494.589 231.64 L 494.589 209.625 L 500.038 209.625 C 506.949 209.625 509.514 212.13 509.514 216.715 C 509.519 220.618 507.252 222.974 503.021 223.417 Z" style="fill: rgb(255, 255, 255);"/>
    <path d="M 526.988 222.735 L 522.757 222.735 L 522.757 231.64 L 520.554 231.64 L 520.554 209.625 L 526.63 209.625 C 532.676 209.625 535.121 211.679 535.121 216.297 C 535.121 220.469 532.978 222.735 526.988 222.735 Z M 525.888 211.623 L 522.757 211.623 L 522.757 220.737 L 526.839 220.737 C 531.219 220.737 532.889 219.489 532.889 216.297 C 532.889 211.832 530.085 211.623 525.888 211.623 Z" style="fill: rgb(255, 255, 255);"/>
    <path d="M 548.607 232.028 C 542.024 232.028 537.047 227.141 537.047 220.707 C 537.047 214.124 541.905 209.237 548.458 209.237 C 553.017 209.237 556.89 211.564 558.585 215.347 L 556.11 215.347 C 554.235 212.395 551.645 211.265 548.543 211.265 C 543.302 211.265 539.28 215.317 539.28 220.618 C 539.28 225.773 543.481 230 548.573 230 C 551.794 230 553.907 228.781 556.229 225.859 L 558.671 225.859 C 556.472 229.945 553.076 232.028 548.607 232.028 Z" style="fill: rgb(255, 255, 255);"/>
    <path d="M 572.301 211.623 L 572.301 219.578 L 580.942 219.578 L 580.942 221.572 L 572.301 221.572 L 572.301 231.64 L 570.098 231.64 L 570.098 209.625 L 581.27 209.625 L 581.27 211.619 L 572.301 211.619 Z" style="fill: rgb(255, 255, 255);"/>
    <path d="M 597.405 231.64 L 591.18 222.228 L 584.925 231.64 L 582.335 231.64 L 589.813 220.379 L 582.752 209.625 L 585.343 209.625 L 591.185 218.445 L 596.992 209.625 L 599.553 209.625 L 592.493 220.379 L 600 231.64 L 597.405 231.64 Z" style="fill: rgb(255, 255, 255);"/>
    <path d="M 563.656 222.616 C 562.761 222.616 562.049 221.905 562.049 221.01 C 562.049 220.119 562.761 219.403 563.656 219.403 C 564.521 219.403 565.262 220.119 565.262 221.01 C 565.262 221.905 564.521 222.616 563.656 222.616 Z" style="fill: rgb(255, 255, 255);"/>
  </g>
</svg>
